src/components/icons/SVG/cross.svg

<!-- Generated by IcoMoon.io -->
<svg version="1.1" xmlns="http://www.w3.org/2000/svg" width="32" height="32" viewBox="0 0 32 32">
<title>cross</title>
<path d="M16 11.636l-11.636-11.636-4.364 4.364 11.636 11.636-11.636 11.636 4.364 4.364 11.636-11.636 11.636 11.636 4.364-4.364-11.636-11.636 11.636-11.636-4.364-4.364z"></path>
</svg>

<svg xmlns="http://www.w3.org/2000/svg" width="32" height="32"><path d="M16 11.636L4.364 0 0 4.364 11.636 16 0 27.636 4.364 32 16 20.364 27.636 32 32 27.636 20.364 16 32 4.364 27.636 0z"/></svg>
